X:1
T:Angel’s Hymn (Gibbons), LM
T:Angel’s Hymn (Gibbons), LM
T:Orlando Gibbons, adapted by Samuel Wesley, 1872
T:Public Domain Courtesy of the Cyber Hymnal™
C:Orlando Gibbons, adapted by Samuel Wesley, 1872
Z:Public Domain
Z:Courtesy of the Cyber Hymnal™
%%score 1 2 ( 3 4 ) ( 5 6 )
L:1/8
Q:1/4=125
M:3/4
K:G
V:1 treble 
V:2 treble 
V:3 treble 
V:4 treble 
V:5 bass 
V:6 bass 
V:1
 D2 | D4 D2 | F4 G2 | G4 F2 | G4 D2 | D4 G2 | F4 F2 | (E2 F2) E2 | F4 D2 | G4 G2 | G4 G2 | %11
 G2 F2 G2 | F4 G2 | F4 G2 | (G2 F2) G2 | G4 F2 | G8 |] %17
V:2
 B2 | B4 B2 | d4 d2 | (e2 d2) (dc) | B4 B2 | B4 G2 | A4 d2 | (B2 A2) A2 | A4 G2 | G4 B2 | c4 d2 | %11
 d4 d2 | d4 d2 | d4 d2 | d4 B2 | (e2 d2) c2 | B8 |] %17
V:3
 [DG]2 | [DB]4 [DG]2 | [FA]4 [GB]2 | (c2 B2) [FA]2 | G4 [DG]2 | [DB]4 [G^c]2 | [Fd]4 [FA]2 | %7
 d4 [E^c]2 | [Fd]4 [Dd]2 | [Gc]4 [Gd]2 | [Ge]4 [Gd]2 | c4 [GB]2 | [FA]4 [Gd]2 | [Fc]4 [GB]2 | %14
 A4 G2 | (c2 B2) [DFA]2 | G8 |] %17
V:4
 x2 | x6 | x6 | G4 x2 | G4 x2 | x6 | x6 | (E2 F2) x2 | x6 | x6 | x6 | (G2 F2) x2 | x6 | x6 | %14
 G2 F2 G2 | G4 x2 | [DG]8 |] %17
V:5
 [G,B,]2 | [G,B,]4 [G,B,]2 | [D,D]4 [G,D]2 | ([C,E]2 [D,D]2) (DC) | [G,B,]4 [G,B,]2 | %5
 [G,B,]4 [E,G,]2 | [D,A,]4 [F,D]2 | ([G,B,]2 A,2) A,2 | [D,A,]4 G,2 | [E,G,]4 [G,B,]2 | %10
 [C,C]4 [B,,D]2 | [A,,D]4 [G,,D]2 | [D,D]4 [B,,D]2 | [A,,D]4 [G,,D]2 | [D,D]4 [E,B,]2 | %15
 [C,E]2 [D,D]2 [D,C]2 | [G,,B,]8 |] %17
V:6
 x2 | x6 | x6 | x4 D,2 | x6 | x6 | x6 | x2 A,2 A,2 | x4 G,2 | x6 | x6 | x6 | x6 | x6 | x6 | x6 | %16
 x8 |] %17

